X:71
T:Seksmannsril
O:Norway
C:Traditional
L:1/16
M:2/4
Q:1/8=200
R:Reel/Turdans
K:D
% %rightmargin 11.5cm
"Intro"|\
"D"fagf "A"egfe |"D".d2d2 d2
% %rightmargin 2.78cm
%P:A
FG |: "D"AFDF AFDF | A2d2 d2cB | AFDF AFDF | "A"G2E2 E2FG|
"D"AFDF AFDF | A2d2 d2de | fagf "A"egfe | "D".d2d2 d2 z2 :|
%P:B
a2 |: "D"fdAd fagf | "A"ecAc egfe | "D"fdAd fagf | "A"edcB A2de |
"D"fdAd fagf | "A"ecAc egfe | "D"fagf "A"egfe | "D".d2d2 d2 z2 :|
|: "D"a2fd "G"B2ec | "A"A2AG "D"F4 | "A"E2FG A2Bc |[1 "D"d2ec d4 :|[2 "D".d2d2 d2 z2 |]

